modules/framework7-icons/icons/pie.svg

<?xml version="1.0" encoding="UTF-8"?>
<svg width="50px" height="50px" viewBox="0 0 50 50" version="1.1" xmlns="http://www.w3.org/2000/svg" xmlns:xlink="http://www.w3.org/1999/xlink">
    <!-- Generator: Sketch 40.1 (33804) - http://www.bohemiancoding.com/sketch -->
    <title>pie</title>
    <desc>Created with Sketch.</desc>
    <defs></defs>
    <g id="Page-1" stroke="none" stroke-width="1" fill="none" fill-rule="evenodd">
        <g id="pie" fill="#000000">
            <path d="M25,48 C37.7025492,48 48,37.7025492 48,25 C48,12.2974508 37.7025492,2 25,2 L26.9268482,0.0731518471 C26.9512419,0.0750111976 27,25 27,25 L27,26.1923537 L25.9510999,26.7593774 L4.02678208,38.6114203 C4.01292775,38.5901165 4.76138292,35.9407718 4.76138292,35.9407718 C8.75690619,43.3112137 16.4641798,48 25,48 Z M50,25 C50,38.8071187 38.8071187,50 25,50 C15.4972756,50 7.23287772,44.6980937 3.00355778,36.8910325 L25,25 L25,0 C38.8071187,0 50,11.1928813 50,25 Z" id="Combined-Shape"></path>
            <path d="M2,25 C2,27.9622507 2.98198902,31.6092878 2.98198902,31.6092878 L22.0445309,21.2429915 L21,23 L21,2.36798096 C13,3 2,13.0359815 2,25 Z M23,23 L1.86539671,34.4930926 C0.66302575,31.5660401 0,28.360449 0,25 C0,11.8660944 10.1279968,1.09770927 23,0.0788348733 L23,23 Z" id="Combined-Shape"></path>
        </g>
    </g>
</svg>

<svg width="50" height="50" xmlns="http://www.w3.org/2000/svg"><g fill-rule="evenodd"><path d="M25 48c12.703 0 23-10.297 23-23S37.703 2 25 2L26.927.073C26.95.075 27 25 27 25v1.192l-1.049.567L4.027 38.611c-.014-.02.734-2.67.734-2.67A22.997 22.997 0 0 0 25 48zm25-23c0 13.807-11.193 25-25 25-9.503 0-17.767-5.302-21.996-13.109L25 25V0c13.807 0 25 11.193 25 25z"/><path d="M2 25c0 2.962.982 6.61.982 6.61l19.063-10.367L21 23V2.368C13 3 2 13.036 2 25zm21-2L1.865 34.493A24.927 24.927 0 0 1 0 25C0 11.866 10.128 1.098 23 .079V23z"/></g></svg>
